public/locations/location-my-home.svg

<svg xmlns="http://www.w3.org/2000/svg" viewBox="0 0 50 32"><path d="M43 0H7L0 16h7v16l36-.11V16h7zM24 27H14v-7h10zm0-9H14v-7h10zm12 9H26v-7h10zm0-9H26v-7h10z" fill="#e77b32"/><path fill="#eed04e" d="M14 11h10v7H14zM26 11h10v7H26zM26 20h10v7H26zM14 20h10v7H14z"/></svg>

<svg xmlns="http://www.w3.org/2000/svg" viewBox="0 0 50 32"><g id="locations"><path d="M43,0H7L0,16H7V32l36-.11V16h7ZM24,27H14V20H24Zm0-9H14V11H24Zm12,9H26V20H36Zm0-9H26V11H36Z" fill="#e77b32"/><rect x="14" y="11" width="10" height="7" fill="#eed04e"/><rect x="26" y="11" width="10" height="7" fill="#eed04e"/><rect x="26" y="20" width="10" height="7" fill="#eed04e"/><rect x="14" y="20" width="10" height="7" fill="#eed04e"/></g></svg>
